satoshis-vision-conference/dist/assets/img/svg/023-mount-fuji.svg

<svg xmlns="http://www.w3.org/2000/svg" viewBox="0 0 496.704 496.704"><path d="M413.296 480.704L322.088 298.28l38.264-38.264v-51.312h-50.048l-19.2-64h13.248v-48h-3.248l-44.752-82.04V.704h-7.616L248.352 0l-.384.704h-7.616v13.96L195.6 96.704h-3.248v48H205.6l-19.2 64h-50.048v51.312l38.264 38.264-91.208 182.424H40.352v16h416v-16h-43.056zm-47.872-59.968l-81.488-18.8 64.632-14.912 16.856 33.712zM256.352 391.88v-37.736l81.768 18.864-81.768 18.872zm66.28-56.72l10.096 20.192-48.792-11.264 38.696-8.928zm-18.28-110.456h40v24h-40v-24zm0 40h28.688l-24 24h-4.688v-24zm3.056 40l7.864 15.728-58.92 13.6v-29.328h51.056zm-19.056-40v24h-32v-24h32zm-32-16v-24h32v24h-32zm3.312-80l16.872-16.872L291 200.04l-31.336-31.336zm-11.312-11.312l-12.688-12.688h25.376l-12.688 12.688zm-40-44.688h24v-16h-18.52l34.52-63.296 34.52 63.296h-34.52v16h40v16h-80v-16zm11.816 39.128l16.872 16.872-31.336 31.336 14.464-48.208zm-67.816 72.872h40v24h-40v-24zm11.312 40h28.688v24h-4.688l-24-24zm10.4 70.456l38.696 8.928-48.792 11.256 10.096-20.184zm-25.928 51.856l64.632 14.92-81.488 18.8 16.856-33.72zm-46.84 93.688l20.704-41.4 1.016-.232 89.752 20.712-90.664 20.92h-20.808zm139.056 0h-47.08l47.08-10.864v10.864zm0-30.984L158.6 430.856l81.752-18.864v37.728zm0-57.84L158.6 373.016l81.752-18.872v37.736zm0-57.848l-58.92-13.592 7.864-15.736h51.056v29.328zm0-45.328h-32v-24h32v24zm0-40h-32v-24h32v24zm-20.688-40l28.688-28.688 28.688 28.688h-57.376zm36.688 272V469.84l47.072 10.864h-47.072zm118.24 0l-90.656-20.92 14.632-3.376-3.6-15.592-38.616 8.912V412l81.752 18.864-27.424 6.328 3.592 15.592 59.416-13.712.888.208.032-.152 20.8 41.576h-20.816z"/></svg>

<?xml version="1.0" encoding="iso-8859-1"?>
<!-- Generator: Adobe Illustrator 19.0.0, SVG Export Plug-In . SVG Version: 6.00 Build 0)  -->
<svg xmlns="http://www.w3.org/2000/svg" xmlns:xlink="http://www.w3.org/1999/xlink" version="1.1" id="Capa_1" x="0px" y="0px" viewBox="0 0 496.704 496.704" style="enable-background:new 0 0 496.704 496.704;" xml:space="preserve">
<g>
	<g>
		<path d="M413.296,480.704L322.088,298.28l38.264-38.264v-51.312h-50.048l-19.2-64h13.248v-48h-3.248l-44.752-82.04V0.704h-7.616    L248.352,0l-0.384,0.704h-7.616v13.96L195.6,96.704h-3.248v48H205.6l-19.2,64h-50.048v51.312l38.264,38.264L83.408,480.704H40.352    v16h200h16h200v-16H413.296z M365.424,420.736l-81.488-18.8l64.632-14.912L365.424,420.736z M256.352,391.88v-37.736    l81.768,18.864L256.352,391.88z M322.632,335.16l10.096,20.192l-48.792-11.264L322.632,335.16z M304.352,224.704h40v24h-40    V224.704z M304.352,264.704h28.688l-24,24h-4.688V264.704z M307.408,304.704l7.864,15.728l-58.92,13.6v-29.328H307.408z     M288.352,264.704v24h-32v-24H288.352z M256.352,248.704v-24h32v24H256.352z M259.664,168.704l16.872-16.872L291,200.04    L259.664,168.704z M248.352,157.392l-12.688-12.688h25.376L248.352,157.392z M208.352,112.704h24v-16h-18.52l34.52-63.296    l34.52,63.296h-34.52v16h40v16h-2.048h-9.264h-57.376H210.4h-2.048V112.704z M220.168,151.832l16.872,16.872l-31.336,31.336    L220.168,151.832z M152.352,224.704h40v24h-40V224.704z M163.664,264.704h28.688v24h-4.688L163.664,264.704z M174.064,335.16    l38.696,8.928l-48.792,11.256L174.064,335.16z M148.136,387.016l64.632,14.92l-81.488,18.8L148.136,387.016z M101.296,480.704    l20.704-41.4l1.016-0.232l89.752,20.712l-90.664,20.92H101.296z M240.352,480.704h-47.08l47.08-10.864V480.704z M240.352,449.72    L158.6,430.856l81.752-18.864V449.72z M240.352,391.88L158.6,373.016l81.752-18.872V391.88z M240.352,334.032l-58.92-13.592    l7.864-15.736h51.056V334.032z M240.352,288.704h-32v-24h32V288.704z M240.352,248.704h-32v-24h32V248.704z M219.664,208.704    l28.688-28.688l28.688,28.688H219.664z M256.352,480.704V469.84l47.072,10.864H256.352z M374.592,480.704l-90.656-20.92    l14.632-3.376l-3.6-15.592l-38.616,8.912V412l81.752,18.864l-27.424,6.328l3.592,15.592l59.416-13.712l0.888,0.208l0.032-0.152    l20.8,41.576H374.592z"/>
	</g>
</g>
<g>
</g>
<g>
</g>
<g>
</g>
<g>
</g>
<g>
</g>
<g>
</g>
<g>
</g>
<g>
</g>
<g>
</g>
<g>
</g>
<g>
</g>
<g>
</g>
<g>
</g>
<g>
</g>
<g>
</g>
</svg>
